X:2
T:I Loves You Porgy
C:George Gershwin
L:1/8
M:C
I:linebreak $
K:G
"D7" z GBd S|:"G" fa- a2"Em" z gdB |"C" Bd- d2 z EGB |$"Am" df f2"D7" z dBG |"G" B4"C" z FGB |$
"Bm" df- f2"E7" z dB_A |"Am" GB- B2"Bm" z CEG |"C" Bd d2"D7" z BGE ||1$"G6" G4"D7" z GBd :|2
"G6" G4"C#ø" z4 "F#7" x4|"Bm" z B^cd"Bm6" efed ||$"C#ø" B3 B"F#7" d^c- c2 |"Bm" z B^cd efed |
"E7" F3 F"Eb7" A4 |"Dm" z de=f"Dm6" ga=fe |$"E7" d3 d"A7" =fe- e2 |"C7" z fff"B7" g3 g |
"Bb7" eeee"A7" =f2 =f2 |$"Ab7" d8 |"D7" z2 G2 B2 "_D.S. al 3rd end." d2 ||3"G" G8- | G4 |]

